X: 10082
Q: "Slow and tender."
M: C
L: 1/8
K: D
|:\
~F3 G A2 g2 | {d}f3 e Hd2 zD !p!|\
~F3 G {FG}A3 F | (G2 F2) (E2 D2) :|\
"^cres."{d}f3 e d3 f | (c2 d2) B4 |\
{d}f3 e d3 f | d3 c B2 Az |
~F3 G A2 ag | f3 e Hd2 zD |\
{g}f3 e d3 f | (c2 d2) B4 |\
f3 e d4 | c2 (c3/d/4e/4) d2 Dz |\
~F3 G A2 g2 | (3(.f.g.a) (3(.g.f.e) Hd4 ({DEFGABc}|\
d3) B A3 F | (G2 F2) (E2 D2) |]


